X:164
T:O'er the Boggie with my love (Dance)
O:No164 William Clarke of Feltwell
M:C
L:1/8
K:D
N:transcribed M.Humphreys May 2010
c|dedB dA-AB|dedB A3 d| Bee^d efgb|afed B2 A2 z:||:/
d2 fa d2 fa|dedB A3 d| Be-e^d efgb|afed B3 c| /
d2 f/g/a d2 f/g/a |dedB ABdG|Bee^d efgb| afed B2 A z:||

